!!!!SEGMENT: Snf0243-Rubum_quem_viderat_Moyses--Zwickau_1676_1788.krn
!!!id: Snf0243
!!!AGN: Motet
!!!SCT: Edwards, Gasch, Tröster (2022)
!!!voices: 3
!!!COM: Ludwig Senfl
!!!OTL: Rubum quem viderat Moyses (Zwickau 1676-1788)
**kern	**text	**kern	**text	**kern	**text
*part3	*part3	*part2	*part2	*part1	*part1
*staff3	*staff3	*staff2	*staff2	*staff1	*staff1
*I"Bassus	*	*I"Tenor	*	*I"Superius	*
*I'B	*	*I'T	*	*I'S	*
*clefF4	*	*clefGv2	*	*clefG2	*
*	*	*	*	*	*
*k[]	*	*k[]	*	*k[]	*
*	*	*	*	*	*
*M2/1	*	*M2/1	*	*M2/1	*
*met(C|)	*	*met(C|)	*	*met(C|)	*
=1	=1	=1	=1	=1	=1
!	!	!	!	!LO:TX:a:t=Altus not extant	!
!!section: Prima pars: Rubum quem viderat Moyses
!!!OMD: Prima pars: Rubum quem viderat Moyses
1r	.	0r	.	0r	.
1D	Ru-	.	.	.	.
=2	=2	=2	=2	=2	=2
1E	-bum	0r	.	0r	.
1F	quem	.	.	.	.
=3	=3	=3	=3	=3	=3
1.G	vi-	0r	.	0r	.
2G	-de-	.	.	.	.
=4	=4	=4	=4	=4	=4
1G	-rat	0r	.	0r	.
1r	.	.	.	.	.
=5	=5	=5	=5	=5	=5
2r	.	0r	.	0r	.
2.G	Mo-	.	.	.	.
4F	.	.	.	.	.
4E	.	.	.	.	.
4D	.	.	.	.	.
=6	=6	=6	=6	=6	=6
2C	.	0r	.	1r	.
2E	.	.	.	.	.
1D	.	.	.	1d	Ru-
=7	=7	=7	=7	=7	=7
1C	.	1r	.	1e	-bum
1F	.	1A	Ru-	1f	quem
=8	=8	=8	=8	=8	=8
1E	-y-	1B	-bum	1.g	vi-
1C	-ses,	1c	quem	.	.
.	.	.	.	2g	-de-
=9	=9	=9	=9	=9	=9
2G	Mo-	1.d	vi-	[0g	-rat
2G	-y-	.	.	.	.
1G	-ses,	.	.	.	.
.	.	2d	-de-	.	.
=10	=10	=10	=10	=10	=10
2r	.	1d	-rat	0g_	.
2.G	Mo-	.	.	.	.
.	.	1r	.	.	.
4F	.	.	.	.	.
4E	.	.	.	.	.
4D	.	.	.	.	.
=11	=11	=11	=11	=11	=11
2C	.	2r	.	0g_	.
2BB	.	2.d	Mo-	.	.
1GG	.	.	.	.	.
.	.	4c	.	.	.
.	.	4B	.	.	.
.	.	4A	.	.	.
=12	=12	=12	=12	=12	=12
2C	.	4G	.	0g]	.
.	.	4A	.	.	.
2BB	.	4B	.	.	.
.	.	4c	.	.	.
2GG	.	2d	.	.	.
[2C	.	[2e	.	.	.
=13	=13	=13	=13	=13	=13
4C]	.	4e]	.	0r	.
4BB	.	4d	.	.	.
2C	-y-	1c	.	.	.
1GG	-ses,	.	.	.	.
.	.	2B	.	.	.
=14	=14	=14	=14	=14	=14
2r	.	1.c	.	1.g	Mo-
1C	Mo-	.	.	.	.
2D	.	2F	.	2f	.
=15	=15	=15	=15	=15	=15
2C	.	2G	.	1e	.
2AA	.	2A	.	.	.
1BB-X	-y-	1D	.	1d	.
=16	=16	=16	=16	=16	=16
1FF	-ses	1.A	.	1.f	.
[1F	in-	.	.	.	.
.	.	2A	-y-	2f	-y-
=17	=17	=17	=17	=17	=17
2F]	.	0A	-ses	0f	-ses
2F	-com-	.	.	.	.
1F	-bu-	.	.	.	.
=18	=18	=18	=18	=18	=18
1A	.	1r	.	1e	in-
1F	.	2r	.	1f	-com-
.	.	2A	in-	.	.
=19	=19	=19	=19	=19	=19
1E	.	2B	-com-	1.g	-bu-
.	.	1c	-bu-	.	.
1C	-stum,	.	.	.	.
.	.	2c	-stum,	2g	-stum,
=20	=20	=20	=20	=20	=20
1G	con-	2d	con-	2g	con-
.	.	2d	-ser-	2g	-ser-
1E	-ser-	1G	-va-	1g	-va-
=21	=21	=21	=21	=21	=21
[0D	-va-	1A	-tam,	0f	-tam
.	.	2r	.	.	.
.	.	[2A	in-	.	.
=22	=22	=22	=22	=22	=22
1D]	.	2A]	.	1r	.
.	.	2A	-com-	.	.
1GG	-tam	1B	.	1g	a-
=23	=23	=23	=23	=23	=23
1r	.	2.A	-bu-	1a	-gno-
.	.	4B	.	.	.
2r	.	4c	.	1g	-vi-
.	.	4d	.	.	.
2C	a-	2e	.	.	.
=24	=24	=24	=24	=24	=24
1F	-gno-	2d	.	1a	.
.	.	1c	-stum,	.	.
1D	.	.	.	1f	-mus,
.	.	2B	con-	.	.
=25	=25	=25	=25	=25	=25
2C	.	2c	-ser-	1e	.
2AA	.	2c	-va-	.	.
1D	.	1A	-tam,	2r	.
.	.	.	.	2f	a-
=26	=26	=26	=26	=26	=26
2.C	.	2r	.	1g	-gno-
.	.	2E	in-	.	.
4BB	.	.	.	.	.
2AA	.	1F	-com-	1a	.
2AA	-vi-	.	.	.	.
=27	=27	=27	=27	=27	=27
0GG	-mus,	1.G	-bu-	2d	.
.	.	.	.	4g	.
.	.	.	.	4f	.
.	.	.	.	4e	.
.	.	.	.	4d	.
.	.	2G	-stum,	2e	.
=28	=28	=28	=28	=28	=28
2r	.	2G	con-	2d	.
2BB	in-	2G	-ser-	4g	.
.	.	.	.	4f	.
1C	-com-	1G	-va-	4e	.
.	.	.	.	4d	.
.	.	.	.	2e	.
=29	=29	=29	=29	=29	=29
1.D	-bu-	[0F	-tam	2d	.
.	.	.	.	4dd	.
.	.	.	.	4cc	.
.	.	.	.	4b	.
.	.	.	.	4a	.
2D	-stum,	.	.	2b	.
=30	=30	=30	=30	=30	=30
2D	con-	0F]	.	2a	.
2D	-ser-	.	.	4a	-vi-
.	.	.	.	4g	.
1D	-va-	.	.	4f	.
.	.	.	.	4e	.
.	.	.	.	2f	.
=31	=31	=31	=31	=31	=31
1C	-tam	1r	.	[0e	-mus,
2r	.	1G	a-	.	.
2C	a-	.	.	.	.
=32	=32	=32	=32	=32	=32
4AA	-gno-	1A	-gno-	1e]	.
4BB	.	.	.	.	.
4C	.	.	.	.	.
4D	.	.	.	.	.
2E	.	1G	-vi-	2r	.
2E	-vi-	.	.	2g	a-
=33	=33	=33	=33	=33	=33
1AA	-mus,	1A	.	2f	.
.	.	.	.	2e	.
1r	.	1F	-mus	1a	-gno-
=34	=34	=34	=34	=34	=34
2r	.	1E	.	2g	-vi-
2C	a-	.	.	2e	.
1D	-gno-	1r	.	1f	.
=35	=35	=35	=35	=35	=35
2C	.	1r	.	2e	.
2D	.	.	.	2f	.
1BB	-vi-	1D	tu-	1d	.
=36	=36	=36	=36	=36	=36
[0AA	-mus	1A	.	0e	-mus
.	.	1A	-am	.	.
=37	=37	=37	=37	=37	=37
0AA]	.	2r	.	0A	tu-
.	.	2A	lau-	.	.
.	.	2A	-da-	.	.
.	.	[2c	.	.	.
=38	=38	=38	=38	=38	=38
1r	.	2c]	.	1e	.
.	.	2A	-bi-	.	.
1AA	tu-	1A	-lem,	1e	-am
=39	=39	=39	=39	=39	=39
1E	.	1r	.	2r	.
.	.	.	.	2e	lau-
1E	-am	2r	.	2e	-da-
.	.	2E	[lau-	[2g	.
=40	=40	=40	=40	=40	=40
2r	.	2E	-da-	2g]	.
2E	lau-	1G	.	2e	-bi-
2E	-da-	.	.	[1e	-lem,
[2G	.	2E	-bi-	.	.
=41	=41	=41	=41	=41	=41
2G]	.	1E	-lem,]	1e]	.
2E	-bi-	.	.	.	.
1E	-lem	2r	.	1r	.
.	.	2B	lau-	.	.
=42	=42	=42	=42	=42	=42
0G	vir-	2B	-da-	1r	.
.	.	1d	.	.	.
.	.	.	.	2r	.
.	.	2B	-bi-	2b	lau-
=43	=43	=43	=43	=43	=43
0G	-gi-	1B	-lem	2b	-da-
.	.	.	.	1dd	.
.	.	1d	vir-	.	.
.	.	.	.	2b	-bi-
=44	=44	=44	=44	=44	=44
1G	-ni-	1d	-gi-	1b	-lem
1F	.	1d	-ni-	1r	.
=45	=45	=45	=45	=45	=45
0E	-ta-	1c	.	0g	vir-
.	.	[1B	-ta-	.	.
=46	=46	=46	=46	=46	=46
1E	-tem,	1B]	.	0g	-gi-
2r	.	1B	-tem,	.	.
2E	vir-	.	.	.	.
=47	=47	=47	=47	=47	=47
2E	-gi-	0r	.	1g	-ni-
2C	-ni-	.	.	.	.
1D	-ta-	.	.	1f	.
=48	=48	=48	=48	=48	=48
1C	-tem,	0G	vir-	1e	-ta-
2r	.	.	.	1e	-tem,
[2C	vir-	.	.	.	.
=49	=49	=49	=49	=49	=49
4C]	.	0G	-gi-	2r	.
4D	.	.	.	.	.
4E	.	.	.	2.g	vir-
4F	.	.	.	.	.
2G	.	.	.	.	.
.	.	.	.	4a	.
[2GG	-gi-	.	.	4b	.
.	.	.	.	4cc	.
=50	=50	=50	=50	=50	=50
4GG]	.	1G	-ni-	2dd	.
4AA	.	.	.	.	.
4BB	.	.	.	4d	-gi-
4C	.	.	.	4e	.
1D	.	1F	.	4f	.
.	.	.	.	4g	.
.	.	.	.	4a	.
.	.	.	.	4b	.
=51	=51	=51	=51	=51	=51
4AA	.	1E	-ta-	2cc	.
4BB	.	.	.	.	.
4C	.	.	.	2a	-ni-
4D	.	.	.	.	.
4E	.	1E	-tem.	2.g	-ta-
4F	.	.	.	.	.
2G	.	.	.	.	.
.	.	.	.	4f	.
=52	=52	=52	=52	=52	=52
4G	.	1r	.	2d	.
4F	.	.	.	.	.
4E	.	.	.	1g	.
4D	.	.	.	.	.
2C	.	1A	De-	.	.
2D	.	.	.	2f#i	.
=53	=53	=53	=53	=53	=53
2BB	-ni-	1G	-i	1g	-tem.
2C	-ta-	.	.	.	.
1AA	-tem.	1F	.	2r	.
.	.	.	.	2a	De-
=54	=54	=54	=54	=54	=54
2r	.	0G	Ge-	2.b	.
1E	De-	.	.	.	.
.	.	.	.	4a	.
.	.	.	.	2b	.
2C	-i	.	.	2cc	-i
=55	=55	=55	=55	=55	=55
2D	Ge-	1F	-ni-	2.a	Ge-
2D	-ni-	.	.	.	.
.	.	.	.	4b	.
1AA	-trix,	1E	.	4cc	.
.	.	.	.	4b	.
.	.	.	.	4a	.
.	.	.	.	4g	.
=56	=56	=56	=56	=56	=56
1r	.	0D	-trix,	4f	.
.	.	.	.	4g	.
.	.	.	.	4a	.
.	.	.	.	4b	.
2r	.	.	.	2.a	.
[2A	De-	.	.	.	.
.	.	.	.	8gL	.
.	.	.	.	8fJ	.
=57	=57	=57	=57	=57	=57
2A]	.	0r	.	2e	.
2F	-i	.	.	1a	.
2G	Ge-	.	.	.	.
2G	-ni-	.	.	2g	-ni-
=58	=58	=58	=58	=58	=58
1D	-trix,	0F	in-	1a	-trix,
2r	.	.	.	2r	.
2D	in-	.	.	2a	in-
=59	=59	=59	=59	=59	=59
2E	-ter-	0G	-ter-	2g	-ter-
2.C	-ce-	.	.	2.e	-ce-
4D	.	.	.	4f	.
2E	.	.	.	2g	.
=60	=60	=60	=60	=60	=60
1AA	-de,	0A	-ce-	2e	.
.	.	.	.	2c	.
2r	.	.	.	2e	.
2D	in-	.	.	2f	.
=61	=61	=61	=61	=61	=61
2E	-ter-	0G	-de	1g	-de
2.C	-ce-	.	.	.	.
.	.	.	.	2r	.
4D	.	.	.	.	.
2E	.	.	.	2g	pro
=62	=62	=62	=62	=62	=62
1AA	-de	1r	.	2a	.
.	.	.	.	2.cc	no-
2r	.	1F	pro	.	.
.	.	.	.	4b	.
2D	pro	.	.	2a	.
=63	=63	=63	=63	=63	=63
2E	.	0G	no-	2g	.
2.C	.	.	.	2.e	.
4D	.	.	.	4f	.
2E	.	.	.	2g	.
=64	=64	=64	=64	=64	=64
2AA	.	[0El	-bis.	2a	.
2.E	no-	.	.	2.g	.
4F	.	.	.	4a	.
2G	.	.	.	2b	.
=65	=65	=65	=65	=65	=65
2.C	-bis,	0E_	.	2.e	-bis,
4D	.	.	.	4f	.
2E	.	.	.	2g	.
2AA	.	.	.	2c	.
=66	=66	=66	=66	=66	=66
2r	.	0E_	.	2r	.
2.E	pro	.	.	2.g	pro
4F	.	.	.	4a	.
2G	.	.	.	2b	.
=67	=67	=67	=67	=67	=67
2.C	no-	0E_	.	2.e	no-
4D	.	.	.	4f	.
2E	.	.	.	2g	.
2AA	.	.	.	2c	.
=68	=68	=68	=68	=68	=68
00El	-bis.	00E]	.	00gl	-bis.
==	==	==	==	==	==
*-	*-	*-	*-	*-	*-
!!!system-decoration: [*]
!!!RDF**kern: i = editorial accidental
!!!RDF**kern: l = terminal long
!!!!PTL: <i> New Senfl Edition: Motets for Four Voices (N-V) </i>
!!!PPR: Hollitzer Verlag
!!!PC#: Denkmäler der Tonkunst in Österreich 163.2
!!!PDT: 2022
!!!PED: Scott Lee Edwards, Stefan Gasch, and Sonja Tröster
!!!YEC: Copyright 2022 Denkmäler der Tonkunst in Österreich
!!!YEM: CC-BY-NC 4.0 (https://creativecommons.org/licenses/by-nc/4.0/legalcode)
!!!EED: Benjamin Ory
!!!EEV: 2024/2/14
!!!verovio: header true
!!!header-left: @{PTL}\n@{PED}, eds.\n@{PC#} (@{PDT})&nbsp;\n
!!!header-right:
!!!header-center: